assets/azuremedia/original.svg

<svg height="18" viewBox="0 0 18 18" width="18" xmlns="http://www.w3.org/2000/svg" xmlns:xlink="http://www.w3.org/1999/xlink"><linearGradient id="a" gradientTransform="matrix(.5 .8660254 .8660254 -.5 -2152.376909 1995.178612)" gradientUnits="userSpaceOnUse" x1="-655.236" x2="-637.632" y1="2848.852" y2="2879.398"><stop offset="0" stop-color="#005ba1"/><stop offset=".366" stop-color="#004e8f"/><stop offset="1" stop-color="#003067"/></linearGradient><linearGradient id="b" gradientTransform="matrix(-.5 -.8660254 -.8660254 .5 -2426.794128 -3338.26127)" gradientUnits="userSpaceOnUse" x1="-4132.03" x2="-4110.646" y1="-451.06" y2="-413.559"><stop offset="0" stop-color="#005ba1"/><stop offset=".451" stop-color="#004685"/><stop offset="1" stop-color="#003067"/></linearGradient><linearGradient id="c" gradientTransform="matrix(1 0 0 -1 0 521.307)" gradientUnits="userSpaceOnUse" x1="5.986" x2="7.43" y1="506.861" y2="515.104"><stop offset=".26" stop-color="#50e6ff"/><stop offset=".42" stop-color="#79eaff"/><stop offset=".58" stop-color="#99edff"/><stop offset=".733" stop-color="#b0efff"/><stop offset=".876" stop-color="#bef1ff"/><stop offset="1" stop-color="#c3f1ff"/></linearGradient><path d="m9.226 3.927 4.374 2.515 3.048-1.76a8.79 8.79 0 0 0 -13.93-1.858 10.02 10.02 0 0 1 6.508 1.103" fill="url(#a)"/><path d="m13.541 6.442-.069 6.034 3.168.851a8.793 8.793 0 0 0 -5.24-12.791 10.45 10.45 0 0 1 2.141 5.906" fill="#0078d4"/><path d="m13.535 11.646-4.552 2.63.071 3.5a8.8 8.8 0 0 0 8.764-8.8 8.5 8.5 0 0 0 -.288-2.09 9.58 9.58 0 0 1 -3.995 4.76" fill="#5ea0ef"/><path d="m8.983 14.276-4.555-2.63-3.02 1.812a8.782 8.782 0 0 0 13.672 1.881 9.9 9.9 0 0 1 -6.097-1.063" fill="url(#b)"/><path d="m4.425 11.646.069-6.237-3.117-.821a8.7 8.7 0 0 0 -1.194 4.412 8.846 8.846 0 0 0 6.535 8.5 10.2 10.2 0 0 1 -2.293-5.854" fill="#0078d4"/><path d="m4.583 6.3 4.4-2.543a10.57 10.57 0 0 0 -5.942-1.245 8.75 8.75 0 0 0 -2.858 6.488 9 9 0 0 0 .317 2.32 10.25 10.25 0 0 1 4.083-5.02" fill="#5ea0ef"/><path d="m13.535 11.646v-5.26l-4.555-2.629-4.555 2.629v5.26l4.555 2.63z" fill="#c3f1ff"/><path d="m8.986 9.071v5.205l-4.561-2.63v-5.242z" fill="url(#c)"/><path d="m8.98 9.071v5.205l4.561-2.63v-5.242z" fill="#50e6ff"/></svg>

<svg xmlns="http://www.w3.org/2000/svg" width="18" height="18" viewBox="0 0 18 18"><defs><linearGradient id="b122302a-f09e-4194-83f1-be587a2d78bd" x1="-655.236" x2="-637.632" y1="2848.852" y2="2879.398" gradientTransform="rotate(240 -500.23 1618.927)scale(-1 1)" gradientUnits="userSpaceOnUse"><stop offset="0" stop-color="#005ba1"/><stop offset=".366" stop-color="#004e8f"/><stop offset="1" stop-color="#003067"/></linearGradient><linearGradient id="a0826712-a32a-4db2-8ce4-ce349db35558" x1="-4132.03" x2="-4110.646" y1="-451.06" y2="-413.559" gradientTransform="rotate(60 1677.622 -3770.796)scale(-1 1)" gradientUnits="userSpaceOnUse"><stop offset="0" stop-color="#005ba1"/><stop offset=".451" stop-color="#004685"/><stop offset="1" stop-color="#003067"/></linearGradient><linearGradient id="bfb250ff-0c6e-4198-b82c-2afbc5fd923a" x1="5.986" x2="7.43" y1="506.861" y2="515.104" gradientTransform="matrix(1 0 0 -1 0 521.307)" gradientUnits="userSpaceOnUse"><stop offset=".26" stop-color="#50e6ff"/><stop offset=".42" stop-color="#79eaff"/><stop offset=".58" stop-color="#99edff"/><stop offset=".733" stop-color="#b0efff"/><stop offset=".876" stop-color="#bef1ff"/><stop offset="1" stop-color="#c3f1ff"/></linearGradient></defs><g id="b4bf3201-4e06-4d9e-8474-3654b7929c12"><path fill="url(#b122302a-f09e-4194-83f1-be587a2d78bd)" d="M9.226 3.927 13.6 6.442l3.048-1.76a8.79 8.79 0 0 0-13.93-1.858 10.02 10.02 0 0 1 6.508 1.103"/><path fill="#0078d4" d="m13.541 6.442-.069 6.034 3.168.851A8.793 8.793 0 0 0 11.4.536a10.45 10.45 0 0 1 2.141 5.906"/><path fill="#5ea0ef" d="m13.535 11.646-4.552 2.63.071 3.5a8.8 8.8 0 0 0 8.764-8.8 8.5 8.5 0 0 0-.288-2.09 9.58 9.58 0 0 1-3.995 4.76"/><path fill="url(#a0826712-a32a-4db2-8ce4-ce349db35558)" d="m8.983 14.276-4.555-2.63-3.02 1.812a8.782 8.782 0 0 0 13.672 1.881 9.9 9.9 0 0 1-6.097-1.063"/><path fill="#0078d4" d="m4.425 11.646.069-6.237-3.117-.821A8.7 8.7 0 0 0 .183 9a8.846 8.846 0 0 0 6.535 8.5 10.2 10.2 0 0 1-2.293-5.854"/><path fill="#5ea0ef" d="m4.583 6.3 4.4-2.543a10.57 10.57 0 0 0-5.942-1.245A8.75 8.75 0 0 0 .183 9 9 9 0 0 0 .5 11.32 10.25 10.25 0 0 1 4.583 6.3"/><path fill="#c3f1ff" d="M13.535 11.646v-5.26L8.98 3.757 4.425 6.386v5.26l4.555 2.63z"/><path fill="url(#bfb250ff-0c6e-4198-b82c-2afbc5fd923a)" d="M8.986 9.071v5.205l-4.561-2.63V6.404z"/><path fill="#50e6ff" d="M8.98 9.071v5.205l4.561-2.63V6.404z"/></g></svg>
